dist/img/contacts/social/facebook.svg

<svg width="13" height="25" viewBox="0 0 13 25" fill="none" xmlns="http://www.w3.org/2000/svg">
<path d="M10.6636 4.15104H12.9458V0.176042C12.5521 0.121875 11.1979 0 9.62085 0C6.33022 0 4.07606 2.06979 4.07606 5.87396V9.375H0.444809V13.8187H4.07606V25H8.52814V13.8198H12.0125L12.5656 9.37604H8.5271V6.31458C8.52814 5.03021 8.87397 4.15104 10.6636 4.15104Z" fill="white"/>
</svg>

<svg width="13" height="25" fill="none" xmlns="http://www.w3.org/2000/svg"><path d="M10.664 4.151h2.282V.176C12.552.122 11.198 0 9.62 0 6.33 0 4.076 2.07 4.076 5.874v3.501H.445v4.444h3.631V25h4.452V13.82h3.484l.554-4.444H8.527V6.315c.001-1.285.347-2.164 2.137-2.164z" fill="#fff"/></svg>
